X:4
T:Destiny 
Z:id:hn-reel-24
M:C|9
P:sontel
D:B>A cBee|dcBc efie|d2aB eAcA||
ABce fedc|Bcdc d2dc


*****************************


16300 1 1.1154317 

<start":
T:Ghillpall
R:4
Hce Bce EFBg | eBdB BGBA | G2EF G2cd | ecAd efge | fedB AGFE :|2 ~G3E A2||
<end>


*****************************


16400 1 1.5760759 

<star tusse orrips Furkiellears, #8
T:Mare Dinereds ahe &n age are "The Haj 1174 pars Mife
D:Mutt of the 


*****************************


16500 1 1.5089264 

<start ollatt to the froms reell.
H:Thille Sa Roor
R:reel
D:Cone to the of thild te, #85
R:ree
D:Choek Bo


*****************************


16600 1 1.5069178 

<start>
D:BaAlfy.
D:Gary Pery Dene127. (199b-118156)
Z:vishisce Car
S:version vears on the fancers, The
R


*****************************


16700 1 0.6169069 

<start of-t the Mohly's.
Z:id:hn-reel-67
M:C|
K:Ddor
B2BA BA~E2|GB
BAFA BAGB|GBAG ABAG|FE~F2 eA~G2|BGBG E


*****************************


16800 1 1.4055675 

<start>
HAGMEs AFab | AG~A2 B2BA |BGBd BcdF | F2GF GFED | BEEG BAGF | GEFA dBBG | GEEG FFDF |
GBBG F2DF |


*****************************


16900 1 1.8108954 

<start Parithits topl see amactine, M. Chair, The
R: Marban Playd (Mwaj's Varted", The
R:reel
H:See also 


*****************************


17000 1 1.3789032 

<start>
GABG DEFE|~D3^F ADEE|~GBBA GE~E2|
c2cd efge|
c3e edcA|G2FD DDED|A,DEE DEDE|d2B,E FE~C2|FAdG AGF,F


*****************************


17100 1 1.5451629 

<start:
HdAGF | F2E2 ABFD | E2AE FDFA | EcAG FGAG | A2dc BcdB | AGEF GEED :|2 (3cBA GE D2 (3EDE | EGEG BG


*****************************


17200 1 0.572478 

<start vertion 14
D:Pavin Mighan's elf, Thend Tune fere oris: Deighered Ming McLain
R:reel
S:Seasion, The


*****************************


17300 1 1.3653547 

<starton ofd toun (1977-19188)
Z:id:hn--00
M:C|
Zind of the sads aA of the Hmoution of Leloy's Lealis: Cr


*****************************


17400 1 1.4477466 

<star tu tlo bur the reel the Stensing of 197 pestion it Merty #9
D:Frankif tunety: Meastain, The
R:set A


*****************************


17500 1 2.2702553 

<start:
